X: 1
T: Jimmy Allen
M: 4/4
L: 1/8
R: reel
K: Gmaj
GA|:B2 G2 G2 A2|B4 G2 AB|c2 A2 A2 B2|c4 B2 A2|
G2 g2 g2 e2|d4 B3 c|d2 d2 cB A2|1 G6 GA :|2 G6 BA||
|:G2 g2 g3 f|e2 d2 c2 B2|A2 a2 a3 g|f2 d2 e2 f2|
g3 a g2 e2|d4  B3 c|d2 d2 cB A2|1 G6  BA:|2 G6||
